assets/images/sprite.svg

<svg xmlns="http://www.w3.org/2000/svg">
    <symbol id="logo" viewBox="0 0 62 28">
        <g>
            <path d="M13.9994 12.68L9.68692 0.524902H7.27855L3.04845 12.3095C2.328 14.3473 1.98836 14.7178 0.917969 14.9134V15.4177H5.04514V14.9134C3.63511 14.6973 3.42927 14.2444 4.03651 12.3506L4.7055 10.3231H9.3164L10.078 12.5874C10.6338 14.2753 10.3765 14.7178 9.06939 14.9134V15.4177H15.9857V14.9134C14.9462 14.7178 14.586 14.3267 13.9994 12.68ZM4.93193 9.60262L6.98007 3.32438L9.07968 9.60262H4.93193Z"/>
            <path d="M20.0005 5.05347L15.4514 5.60925V6.08269L15.9763 6.24736C16.5424 6.44292 16.635 6.58701 16.635 7.256V13.8018C16.635 14.5223 16.4703 14.7487 15.4514 14.9134V15.4177H21.3385V14.9134C20.2064 14.7281 20.0211 14.512 20.0211 13.6989V8.3058C20.474 7.88382 21.5135 7.61623 22.5324 7.61623C23.1191 7.61623 23.716 7.70886 24.0145 7.82207C24.138 7.57506 24.2512 7.14279 24.2512 6.70022C24.2512 5.77392 23.8086 5.03289 22.8823 5.03289C21.8428 5.03289 20.9783 5.90772 19.9902 7.95587L20.0005 5.05347Z" />
            <path d="M29.5628 15.6236C31.4154 15.6236 32.9592 14.9134 33.7209 13.8224V13.3181C33.2062 13.8224 32.3108 14.1621 31.3125 14.1621C29.2643 14.1621 27.6073 12.5462 27.6073 9.71584C27.6073 7.35892 28.8424 5.85626 30.7052 5.85626C31.261 5.85626 31.755 5.99006 32.1462 6.23707C32.1256 6.22678 32.1153 6.22678 32.0947 6.22678C31.3022 6.22678 30.6538 6.88548 30.6538 7.71915C30.6538 8.55282 31.3228 9.21152 32.1667 9.21152C32.9901 9.21152 33.6797 8.56311 33.6797 7.6574C33.6797 6.17532 32.2697 4.99172 29.7892 4.99172C26.5163 4.99172 24.1079 7.17366 24.1079 10.3231C24.1079 13.5857 26.5266 15.6236 29.5628 15.6236Z" />
            <path d="M38.4458 0L33.8761 0.555779V1.02922L34.401 1.20419C34.9773 1.39974 35.0597 1.54383 35.0597 2.21282V13.7813C35.0597 14.5223 34.8744 14.7384 33.8761 14.9134V15.4177H39.475V14.9134C38.5796 14.7487 38.4458 14.5635 38.4458 13.843V7.36921C38.7546 6.79285 39.403 6.40175 40.2469 6.40175C41.41 6.40175 42.0892 7.09132 42.0892 8.47048V13.843C42.0892 14.5635 41.9349 14.759 41.06 14.9134V15.4177H46.659V14.9134C45.64 14.7384 45.4651 14.5223 45.4651 13.7813V8.27493C45.4651 6.05181 44.055 4.99172 41.9657 4.99172C40.2263 4.99172 38.9604 5.78422 38.4252 6.94723L38.4458 0Z" />
            <path d="M15.1799 17.4299L10.6307 17.9857V18.4591L11.1556 18.6238C11.732 18.8194 11.8143 18.9635 11.8143 19.6324V26.1577C11.8143 26.8987 11.6291 27.1149 10.6307 27.2898V27.7942H16.2297V27.2898C15.3343 27.1355 15.2005 26.9399 15.2005 26.2195V19.7457C15.5092 19.1796 16.0959 18.7782 16.9296 18.7782C18.0102 18.7782 18.6278 19.4575 18.6278 20.8263V26.2195C18.6278 26.9399 18.5043 27.1355 17.6088 27.2898V27.7942H23.0431V27.2898C22.1477 27.1355 22.0139 26.9399 22.0139 26.2195V20.4764C22.0139 20.1882 21.9933 19.9412 21.9419 19.6942C22.2609 19.1384 22.8785 18.7782 23.7121 18.7782C24.8031 18.7782 25.4412 19.4575 25.4412 20.8263V26.2195C25.4412 26.9399 25.3074 27.1252 24.412 27.2898V27.7942H30.0109V27.2898C29.0023 27.1149 28.8273 26.8987 28.8273 26.1577V20.6308C28.8273 18.4591 27.4791 17.3682 25.4309 17.3682C23.7121 17.3682 22.3844 18.1915 21.8801 19.3546C21.5096 18.068 20.2951 17.3682 18.6792 17.3682C16.9296 17.3682 15.6739 18.1915 15.1799 19.3443V17.4299Z" />
            <path d="M36.0018 28C39.3159 28 41.7963 25.7975 41.7963 22.6378C41.7963 19.4163 39.3365 17.3682 36.043 17.3682C32.7392 17.3682 30.2588 19.5604 30.2588 22.7201C30.2588 25.9519 32.7186 28 36.0018 28ZM36.0739 27.3207C34.6947 27.3207 33.8405 25.5505 33.8405 22.6069C33.8405 19.7662 34.5815 18.0474 35.9812 18.0474C37.3501 18.0474 38.2044 19.8074 38.2044 22.751C38.2044 25.5916 37.4633 27.3207 36.0739 27.3207Z" />
            <path d="M42.7543 19.7662L45.842 27.8147H47.6946L50.6382 20.1882C51.2763 18.5312 51.5645 18.243 52.3878 18.0783V17.5637H48.9502V18.0783C50.1133 18.243 50.2471 18.5724 49.7633 20.1059L48.1372 24.9844L46.511 20.0853C46.0375 18.5724 46.1713 18.2327 47.3652 18.0783V17.5637H41.1796V18.0783C41.9927 18.2533 42.2706 18.5415 42.7543 19.7662Z" />
            <path d="M51.5859 22.6995C51.5859 25.9724 54.0045 28 57.0716 28C58.986 28 60.5504 27.3104 61.3017 26.1783L61.2914 25.674C60.7768 26.1989 59.9123 26.5797 58.9036 26.5797C56.8246 26.5797 55.2911 25.0667 55.0235 22.3908H61.4355C61.4561 22.2158 61.487 21.9482 61.487 21.6806C61.487 19.1281 59.7785 17.3682 56.9275 17.3682C53.7164 17.3682 51.5859 19.5707 51.5859 22.6995ZM54.972 21.5056C54.972 19.2928 55.6822 18.0474 56.9275 18.0474C58.0185 18.0474 58.5125 19.2208 58.5125 21.0528C58.5125 21.3512 58.5125 21.5674 58.5022 21.7629L54.9823 21.8041C54.972 21.7012 54.972 21.6086 54.972 21.5056Z" />
        </g>
    </symbol>

    <symbol id="search" viewBox="0 0 18 18">
        <g>
            <path d="M15.9891 15.0205L11.424 10.4555C12.1324 9.53965 12.5156 8.41992 12.5156 7.24219C12.5156 5.83242 11.9654 4.51055 10.9705 3.51387C9.97559 2.51719 8.6502 1.96875 7.24219 1.96875C5.83418 1.96875 4.50879 2.51895 3.51387 3.51387C2.51719 4.50879 1.96875 5.83242 1.96875 7.24219C1.96875 8.6502 2.51895 9.97559 3.51387 10.9705C4.50879 11.9672 5.83242 12.5156 7.24219 12.5156C8.41992 12.5156 9.53789 12.1324 10.4537 11.4258L15.0188 15.9891C15.0321 16.0025 15.048 16.0131 15.0655 16.0203C15.083 16.0276 15.1018 16.0313 15.1207 16.0313C15.1396 16.0313 15.1584 16.0276 15.1759 16.0203C15.1934 16.0131 15.2093 16.0025 15.2227 15.9891L15.9891 15.2244C16.0025 15.211 16.0131 15.1951 16.0203 15.1776C16.0276 15.1601 16.0313 15.1414 16.0313 15.1225C16.0313 15.1035 16.0276 15.0848 16.0203 15.0673C16.0131 15.0498 16.0025 15.0339 15.9891 15.0205ZM10.0266 10.0266C9.28125 10.7701 8.29336 11.1797 7.24219 11.1797C6.19102 11.1797 5.20313 10.7701 4.45781 10.0266C3.71426 9.28125 3.30469 8.29336 3.30469 7.24219C3.30469 6.19102 3.71426 5.20137 4.45781 4.45781C5.20313 3.71426 6.19102 3.30469 7.24219 3.30469C8.29336 3.30469 9.28301 3.7125 10.0266 4.45781C10.7701 5.20313 11.1797 6.19102 11.1797 7.24219C11.1797 8.29336 10.7701 9.28301 10.0266 10.0266Z" />
        </g>
    </symbol>

     <symbol id="arrow" width="20" height="20" viewBox="0 0 20 20">
        <g>
          <path d="M18 11V9H6L10 5L9 3L2 10L9 17L10 15L6 11H18Z" />
        </g>
    </symbol>



</svg>

<svg xmlns="http://www.w3.org/2000/svg"><symbol id="logo" viewBox="0 0 62 28"><path d="M14 12.68L9.686.525H7.279l-4.23 11.784c-.721 2.038-1.06 2.409-2.131 2.604v.505h4.127v-.505c-1.41-.216-1.616-.669-1.008-2.562l.668-2.028h4.611l.762 2.264c.556 1.688.299 2.13-1.009 2.326v.505h6.917v-.505c-1.04-.195-1.4-.586-1.987-2.233zM4.931 9.603L6.98 3.324l2.1 6.279H4.932z"/><path d="M20 5.053l-4.549.556v.474l.525.164c.566.196.659.34.659 1.009v6.546c0 .72-.165.947-1.184 1.111v.505h5.887v-.505c-1.132-.185-1.317-.401-1.317-1.214V8.306c.453-.422 1.492-.69 2.511-.69.587 0 1.184.093 1.483.206.123-.247.236-.68.236-1.122 0-.926-.442-1.667-1.369-1.667-1.04 0-1.904.875-2.892 2.923L20 5.053zm9.563 10.571c1.852 0 3.396-.71 4.158-1.802v-.504c-.515.504-1.41.844-2.408.844-2.049 0-3.706-1.616-3.706-4.446 0-2.357 1.235-3.86 3.098-3.86.556 0 1.05.134 1.441.381-.02-.01-.03-.01-.051-.01-.793 0-1.441.658-1.441 1.492s.669 1.493 1.513 1.493c.823 0 1.513-.649 1.513-1.555 0-1.482-1.41-2.665-3.89-2.665-3.274 0-5.682 2.182-5.682 5.331 0 3.263 2.419 5.3 5.455 5.3zM38.446 0l-4.57.556v.473l.525.175c.576.196.659.34.659 1.009V13.78c0 .741-.186.957-1.184 1.132v.505h5.599v-.505c-.895-.164-1.03-.35-1.03-1.07V7.369c.31-.576.958-.967 1.802-.967 1.163 0 1.842.69 1.842 2.068v5.373c0 .72-.154.916-1.029 1.07v.505h5.599v-.505c-1.019-.175-1.194-.39-1.194-1.132V8.275c0-2.223-1.41-3.283-3.5-3.283-1.739 0-3.005.792-3.54 1.955L38.445 0zM15.18 17.43l-4.55.556v.473l.526.165c.576.195.658.34.658 1.008v6.526c0 .74-.185.957-1.183 1.132v.504h5.599v-.504c-.896-.154-1.03-.35-1.03-1.07v-6.474c.31-.566.896-.968 1.73-.968 1.08 0 1.698.68 1.698 2.048v5.393c0 .72-.124.916-1.02 1.07v.505h5.435v-.504c-.895-.154-1.03-.35-1.03-1.07v-5.744c0-.288-.02-.535-.071-.782.319-.556.936-.916 1.77-.916 1.091 0 1.73.68 1.73 2.048v5.393c0 .72-.135.906-1.03 1.07v.505h5.599v-.504c-1.009-.175-1.184-.391-1.184-1.132V20.63c0-2.172-1.348-3.263-3.396-3.263-1.719 0-3.047.824-3.55 1.987-.371-1.287-1.586-1.987-3.202-1.987-1.75 0-3.005.824-3.5 1.976V17.43zM36.002 28c3.314 0 5.794-2.203 5.794-5.362 0-3.222-2.46-5.27-5.753-5.27-3.304 0-5.784 2.192-5.784 5.352 0 3.232 2.46 5.28 5.743 5.28zm.072-.68c-1.38 0-2.233-1.77-2.233-4.713 0-2.84.74-4.56 2.14-4.56 1.37 0 2.223 1.76 2.223 4.704 0 2.84-.74 4.57-2.13 4.57zm6.68-7.554l3.088 8.049h1.853l2.943-7.627c.638-1.657.927-1.945 1.75-2.11v-.514H48.95v.514c1.163.165 1.297.494.813 2.028l-1.626 4.878-1.626-4.899c-.474-1.513-.34-1.852.854-2.007v-.514H41.18v.514c.813.175 1.09.463 1.574 1.688zm8.832 2.934c0 3.272 2.419 5.3 5.486 5.3 1.914 0 3.478-.69 4.23-1.822l-.01-.504c-.515.525-1.38.906-2.388.906-2.08 0-3.613-1.513-3.88-4.19h6.411c.021-.174.052-.442.052-.71 0-2.552-1.709-4.312-4.56-4.312-3.21 0-5.341 2.203-5.341 5.332zm3.386-1.194c0-2.213.71-3.459 1.956-3.459 1.09 0 1.585 1.174 1.585 3.006 0 .298 0 .514-.01.71l-3.52.041c-.011-.103-.011-.195-.011-.298z"/></symbol><symbol id="search" viewBox="0 0 18 18"><path d="M15.99 15.02l-4.566-4.564a5.226 5.226 0 001.092-3.214c0-1.41-.55-2.731-1.546-3.728a5.234 5.234 0 00-3.728-1.545 5.24 5.24 0 00-3.728 1.545 5.232 5.232 0 00-1.545 3.728 5.24 5.24 0 001.545 3.728 5.231 5.231 0 003.728 1.546 5.23 5.23 0 003.212-1.09l4.565 4.563a.142.142 0 00.102.042.143.143 0 00.102-.042l.766-.765a.143.143 0 00.031-.157.143.143 0 00-.03-.046zm-5.963-4.993a3.917 3.917 0 01-2.785 1.153 3.917 3.917 0 01-2.784-1.153 3.916 3.916 0 01-1.153-2.785c0-1.051.41-2.04 1.153-2.784a3.916 3.916 0 012.784-1.153c1.051 0 2.041.407 2.785 1.153a3.916 3.916 0 011.153 2.784c0 1.051-.41 2.041-1.153 2.785z"/></symbol><symbol id="arrow" viewBox="0 0 20 20"><path d="M18 11V9H6l4-4-1-2-7 7 7 7 1-2-4-4h12z"/></symbol></svg>
